X: 38479
T: Steamboat, The
R: jig
M: 6/8
K: Gmajor
|:g2d B2A|GBd ~g3|gfe dcB|AdA BAG|
g2d B2A|GBd ~g3|gfe dcB|1 ABA G2f:|2 ABA G2A||
|:B2d ded|ded B2G|c2e efe|efe d2A|
B2d ded|ded B2G|gfe dcB|1 ABA G2A:|2 ABA G2F||
|:EFE E2D|EGA ~B2A|dBA ~B2A|BGE E2D|
EGD EGD|EGA ~B2A|dBA ~B2A|1 BGE E2D:|2 BGE E2f||

